Flat-Remix-Dark/apps/scalable/utilities-terminal.svg

<svg xmlns="http://www.w3.org/2000/svg" width="384pt" height="384pt" version="1.1" viewBox="0 0 384 384">
 <path style="opacity:0.3;fill-rule:evenodd" d="m 37.989255,59.60254 c -12.19495,0 -22.24023,10.04104 -22.24023,22.23828 v 235.31641 c 0,12.19724 10.04298,22.24023 22.24023,22.24023 H 346.01269 c 12.19725,0 22.23828,-10.04527 22.23828,-22.24023 V 81.84082 c 0,-12.19496 -10.04332,-22.23828 -22.23828,-22.23828 z"/>
 <g>
  <path style="fill-rule:evenodd;fill:rgb(9.803%,9.803%,9.803%);stroke-width:19.392349;stroke-linejoin:round;stroke:rgb(100.000%,100.000%,100.000%)" d="M 50.65625 -368.828125 L 461.354167 -368.828125 C 472.375 -368.828125 481.307292 -359.895833 481.307292 -348.875 L 481.307292 -35.119792 C 481.307292 -24.098958 472.375 -15.161458 461.354167 -15.161458 L 50.65625 -15.161458 C 39.635417 -15.161458 30.697917 -24.098958 30.697917 -35.119792 L 30.697917 -348.875 C 30.697917 -359.895833 39.635417 -368.828125 50.65625 -368.828125 Z M 50.65625 -368.828125" transform="matrix(0.75,0,0,0.75,0,336)"/>
  <path style="fill:rgb(100.000%,100.000%,100.000%)" d="M 145.316406 174.066406 L 145.316406 179.480469 L 105.019531 179.480469 L 105.019531 174.066406 Z M 145.316406 174.066406"/>
  <path style="fill:rgb(100.000%,100.000%,100.000%)" d="M 77.359375 102.617188 L 77.359375 111.660156 C 72.941406 112.160156 69.484375 113.46875 67.003906 115.605469 C 64.253906 117.980469 62.875 121.226562 62.875 125.339844 C 62.875 129.128906 64.140625 132.109375 66.664062 134.28125 C 68.976562 136.25 72.554688 137.695312 77.359375 138.625 L 77.359375 156.105469 C 75.082031 155.96875 72.855469 155.582031 70.679688 154.921875 C 68.054688 154.085938 65.453125 152.863281 62.875 151.246094 L 62.875 158.066406 C 65.554688 159.203125 68.21875 160.058594 70.867188 160.640625 C 73.03125 161.09375 75.195312 161.371094 77.359375 161.488281 L 77.359375 172.949219 L 84.148438 172.949219 L 84.148438 161.328125 C 88.816406 160.808594 92.453125 159.449219 95.035156 157.234375 C 97.914062 154.757812 99.351562 151.386719 99.351562 147.121094 C 99.351562 143.179688 98 140.074219 95.300781 137.800781 C 92.839844 135.734375 89.113281 134.25 84.148438 133.332031 L 84.148438 117 C 85.945312 117.160156 87.707031 117.460938 89.429688 117.917969 C 91.648438 118.5 93.808594 119.316406 95.902344 120.378906 L 95.902344 113.75 C 93.808594 113.066406 91.664062 112.539062 89.464844 112.160156 C 87.742188 111.84375 85.96875 111.621094 84.148438 111.492188 L 84.148438 102.617188 Z M 77.359375 117.085938 L 77.359375 132.089844 C 74.96875 131.550781 73.167969 130.78125 71.96875 129.773438 C 70.554688 128.558594 69.847656 126.867188 69.847656 124.695312 C 69.847656 122.476562 70.617188 120.695312 72.15625 119.355469 C 73.421875 118.257812 75.160156 117.503906 77.359375 117.085938 Z M 84.148438 139.972656 C 86.742188 140.574219 88.695312 141.429688 89.996094 142.535156 C 91.5625 143.847656 92.34375 145.617188 92.34375 147.839844 C 92.34375 150.109375 91.523438 151.941406 89.882812 153.332031 C 88.53125 154.492188 86.613281 155.3125 84.148438 155.804688 Z M 84.148438 139.972656"/>
 </g>
</svg>

<svg width="512" height="512" version="1.1" viewBox="0 0 384 384" xmlns="http://www.w3.org/2000/svg"><g fill-rule="evenodd"><path d="m37.949 51.509c-12.198 0-22.246 9.9277-22.246 21.989v232.71c0 12.061 10.046 21.994 22.246 21.994h308.11c12.2 0 22.243-9.9338 22.243-21.994v-232.71c0-12.059-10.044-21.989-22.243-21.989zm0 14.383h308.11c4.3378 0 7.6936 3.3178 7.6936 7.6061v232.71c0 4.2884-3.3582 7.6119-7.6936 7.6119h-308.11c-4.3355 0-7.6994-3.3261-7.6994-7.6119v-232.71c0-4.2862 3.3621-7.6061 7.6994-7.6061z" color="#000000" color-rendering="auto" dominant-baseline="auto" fill="#fff" image-rendering="auto" opacity=".2" shape-rendering="auto" solid-color="#000000" stroke="#000" stroke-linejoin="round" stroke-width="7.4593" style="font-feature-settings:normal;font-variant-alternates:normal;font-variant-caps:normal;font-variant-ligatures:normal;font-variant-numeric:normal;font-variant-position:normal;isolation:auto;mix-blend-mode:normal;shape-padding:0;text-decoration-color:#000000;text-decoration-line:none;text-decoration-style:solid;text-indent:0;text-orientation:mixed;text-transform:none;white-space:normal"/><path d="m37.989 59.603c-12.195 0-22.24 10.041-22.24 22.238v235.32c0 12.197 10.043 22.24 22.24 22.24h308.02c12.197 0 22.238-10.045 22.238-22.24v-235.32c0-12.195-10.043-22.238-22.238-22.238z" opacity=".3"/><path transform="matrix(.75 0 0 .75 0 336)" d="m50.656-368.83h410.7c11.021 0 19.953 8.9323 19.953 19.953v313.76c0 11.021-8.9323 19.958-19.953 19.958h-410.7c-11.021 0-19.958-8.9375-19.958-19.958v-313.76c0-11.021 8.9375-19.953 19.958-19.953z" fill="#171717" stroke="#fff" stroke-linejoin="round" stroke-width="19.392"/></g><path d="m145.32 174.07v5.4141h-40.297v-5.4141z" fill="#fff"/><path d="m77.359 102.62v9.043c-4.418 0.5-7.875 1.8086-10.355 3.9453-2.75 2.375-4.1289 5.6211-4.1289 9.7344 0 3.7891 1.2656 6.7695 3.7891 8.9414 2.3125 1.9688 5.8906 3.4141 10.695 4.3438v17.48c-2.2773-0.13672-4.5039-0.52344-6.6797-1.1836-2.625-0.83593-5.2266-2.0586-7.8047-3.6758v6.8203c2.6797 1.1367 5.3438 1.9922 7.9922 2.5742 2.1641 0.45313 4.3281 0.73047 6.4922 0.84766v11.461h6.7891v-11.621c4.668-0.51953 8.3047-1.8789 10.887-4.0938 2.8789-2.4766 4.3164-5.8476 4.3164-10.113 0-3.9414-1.3516-7.0469-4.0508-9.3203-2.4609-2.0664-6.1875-3.5508-11.152-4.4688v-16.332c1.7969 0.16016 3.5586 0.46094 5.2812 0.91797 2.2188 0.58203 4.3789 1.3984 6.4727 2.4609v-6.6289c-2.0938-0.68359-4.2383-1.2109-6.4375-1.5898-1.7227-0.31641-3.4961-0.53907-5.3164-0.66797v-8.875zm0 14.469v15.004c-2.3906-0.53906-4.1914-1.3086-5.3906-2.3164-1.4141-1.2148-2.1211-2.9062-2.1211-5.0781 0-2.2188 0.76953-4 2.3086-5.3398 1.2656-1.0977 3.0039-1.8516 5.2031-2.2695zm6.7891 22.887c2.5938 0.60156 4.5469 1.457 5.8477 2.5625 1.5664 1.3125 2.3477 3.082 2.3477 5.3047 0 2.2695-0.82031 4.1016-2.4609 5.4922-1.3516 1.1602-3.2695 1.9805-5.7344 2.4727z" fill="#fff"/></svg>
